Qt/Resources/Icons/+Z.svg

<svg width="64" height="64" xmlns="http://www.w3.org/2000/svg" data-name="Layer 1">

 <g>
  <title>Layer 1</title>
  <path id="svg_1" fill="#00ff00" d="m38.85,18.2l9.31,-14l9.33,14l-5,0l0,21.26l-8.69,0l0,-21.26l-4.95,0z"/>
  <path id="svg_2" fill="#6f6f59" d="m52.54,40.58l-8.74,0a1.12,1.12 0 0 1 -1.12,-1.12l0,-20.13l-3.83,0a1.12,1.12 0 0 1 -0.93,-1.75l9.31,-14a1.12,1.12 0 0 1 0.93,-0.5l0,0a1.14,1.14 0 0 1 0.94,0.5l9.33,14.05a1.13,1.13 0 0 1 -0.94,1.75l-3.82,0l0,20.08a1.13,1.13 0 0 1 -1.13,1.12zm-7.61,-2.25l6.48,0l0,-20.13a1.14,1.14 0 0 1 1.13,-1.13l2.85,0l-7.22,-10.88l-7.17,10.88l2.8,0a1.14,1.14 0 0 1 1.13,1.13l0,20.13z"/>
  <path id="svg_3" fill="#ff0000" d="m17.6,58.79l-14,-9.31l14,-9.32l0,4.94l21.25,0l0,8.74l-21.25,0l0,4.95z"/>
  <path id="svg_4" fill="#6f6f59" d="m17.6,59.91a1.12,1.12 0 0 1 -0.62,-0.18l-14,-9.31a1.15,1.15 0 0 1 -0.5,-0.94a1.14,1.14 0 0 1 0.5,-0.94l14.02,-9.32a1.12,1.12 0 0 1 1.75,0.94l0,3.84l20.1,0a1.12,1.12 0 0 1 1.15,1.1l0,8.74a1.13,1.13 0 0 1 -1.15,1.16l-20.12,0l0,3.82a1.13,1.13 0 0 1 -1.13,1.12l0,-0.03zm-12,-10.43l10.88,7.21l0,-2.85a1.14,1.14 0 0 1 1.13,-1.13l20.12,0l0,-6.48l-20.13,0a1.13,1.13 0 0 1 -1.13,-1.13l0,-2.84l-10.87,7.22z"/>
  <rect transform="rotate(-180 48.23 49.23)" id="svg_5" fill="#0000ff" height="18.46" width="18.46" y="40" x="39"/>
  <path id="svg_6" fill="#6f6f59" d="m57.49,59l-18.49,0a1.12,1.12 0 0 1 -1.13,-1.12l0,-18.42a1.12,1.12 0 0 1 1.13,-1.13l18.49,0a1.13,1.13 0 0 1 1.13,1.13l0,18.46a1.13,1.13 0 0 1 -1.13,1.08zm-17.34,-2.21l16.21,0l0,-16.21l-16.21,0l0,16.21z"/>
  <path id="svg_7" fill="#787878" d="m14,20.61l4.57,0l0,3.2l-4.57,0l0,5.26l-3.53,0l0,-5.26l-4.59,0l0,-3.2l4.59,0l0,-5l3.53,0l0,5z"/>
  <path id="svg_8" fill="#787878" d="m24.69,28.08l8.48,0l0,2.84l-12.85,0l0,-1.92l8.23,-13.7l-8.21,0l0,-2.86l12.66,0l0,1.85l-8.31,13.79z"/>
 </g>
</svg>

<svg id="Layer_1" data-name="Layer 1" xmlns="http://www.w3.org/2000/svg" viewBox="0 0 64 64"><path d="M38.85,18.2l9.31-14L57.49,18.2h-5V39.46H43.8V18.2Z" style="fill:#f3c017"/><path d="M52.54,40.58H43.8a1.12,1.12,0,0,1-1.12-1.12V19.33H38.85a1.12,1.12,0,0,1-.93-1.75l9.31-14a1.12,1.12,0,0,1,.93-.5h0a1.14,1.14,0,0,1,.94.5l9.33,14.05a1.13,1.13,0,0,1-.94,1.75H53.67V39.46A1.13,1.13,0,0,1,52.54,40.58Zm-7.61-2.25h6.48V18.2a1.14,1.14,0,0,1,1.13-1.13h2.85L48.17,6.19,41,17.07H43.8a1.14,1.14,0,0,1,1.13,1.13Z" style="fill:#6f6f59"/><path d="M17.6,58.79l-14-9.31L17.6,40.16V45.1H38.85v8.74H17.6Z" style="fill:#de4130"/><path d="M17.6,59.91a1.12,1.12,0,0,1-.62-.18l-14-9.31a1.15,1.15,0,0,1-.5-.94,1.14,1.14,0,0,1,.5-.94L17,39.22a1.12,1.12,0,0,1,1.75.94V44H38.85A1.12,1.12,0,0,1,40,45.1v8.74A1.13,1.13,0,0,1,38.85,55H18.73v3.82a1.13,1.13,0,0,1-1.13,1.12Zm-12-10.43,10.88,7.21V53.84a1.14,1.14,0,0,1,1.13-1.13H37.73V46.23H17.6a1.13,1.13,0,0,1-1.13-1.13V42.26Z" style="fill:#6f6f59"/><rect x="39.03" y="39.46" width="18.46" height="18.46" transform="translate(96.52 97.37) rotate(-180)" style="fill:#a7d28c"/><path d="M57.49,59H39a1.12,1.12,0,0,1-1.13-1.12V39.46A1.12,1.12,0,0,1,39,38.33H57.49a1.13,1.13,0,0,1,1.13,1.13V57.92A1.13,1.13,0,0,1,57.49,59ZM40.15,56.79H56.36V40.58H40.15Z" style="fill:#6f6f59"/><path d="M14,20.61h4.57v3.2H14v5.26H10.47V23.81H5.88v-3.2h4.59v-5H14Z" style="fill:#787878"/><path d="M24.69,28.08h8.48v2.84H20.32V29L28.55,15.3H20.34V12.44H33v1.85Z" style="fill:#787878"/></svg>
